X:083
U: ~ = !turn!
%%topmargin 3cm
T:Green Grow the Rushes Hornpipe
B:Traditional Irish Fiddle Tunes. Randy Miller and Jack Perron.
S:Chieftains
Z:Transcribed by Ralph Palmer
R:Hornpipe
M:C|
L:1/8
K:G
G3A BGGB | ABcd ecAB | c2ec B2dB | AcBA GEDE |
(3.G.G.G GA BGGB | ABcd ecAB | ((3cBc) ec ((3BAB) dB | AcBA GED2 ::
gfga gede | eaab agef | gage dedB | AcBA GED2 |
gfga gede | eaab agef | gbaf ((3gfe) dB | AcBA GEDE :|]
